X:6
T:Master Fox Maule's Birthday
C:Robert Petrie
S:Petrie's Third Collection of Strathspey Reels and Country Dances &c.
Z:Steve Wyrick , 7/30/05
N:Petrie's Third Collection, page 4
L:1/8
M:C
R:Strathspey
K:C
f|e<cG<E Tc2 cf|ec e/f/g/e/ fEG<E|F>AG<E GcTc:|e/f/|g>ce<c G>ce<c|fdec Bd-de/f/|
g<ce<c G>ce<c|f/e/d/c/ B/a/g/f/ ec-ce/f/|g>ca>c g>ce>c|f>de>c Bd-de/d/|c<ed<f e<gf<a|g>fe>d ecc|]
